libs/ui/packages/crypto-icons/src/svg/LRC.svg

<svg width="24" height="24" viewBox="0 0 24 24" fill="none">
<path fill-rule="evenodd" clip-rule="evenodd" d="M12 4.5L18.75 13.8998L12 19.5L5.25 13.8998L12 4.5ZM11.1195 9.50025L8.18475 13.5L11.1195 15.9V9.50025ZM12.8805 9.50025V15.9L15.8153 13.5L12.8805 9.50025Z" fill="#2AB6F6"/>
</svg>

<svg width="24" height="24" viewBox="0 0 24 24" fill="none"><path fill="#2ab6f6" fill-rule="evenodd" d="m12 4.5 6.75 9.4L12 19.5l-6.75-5.6zm-.88 5-2.935 4 2.935 2.4zm1.76 0v6.4l2.935-2.4z" clip-rule="evenodd"/></svg>
